X:1
T:Title
%%score 1 2 3
L:1/8
M:2/2
K:C
V:1 treble nm="Part_1"
V:2 treble-8 nm="Part_2"
V:3 treble-8 nm="Part_3"
V:1
 G8 | F8 | G4 A4- | A4 F4 | E4 G4- | G4 F4- | F4 E4 | F8 | z8 | F8 | D4 C4 | F8 | G4 _B4- | %13
 B4 _B4 | A4 A4- | A4 G4 | A8- | A4 G4 | F8 | E8 | G4 A4- | A4 G4- | G4 F4- | F4 E4 | F8 | z8 | %26
 F6 E2 | C4 F4- | F4 E4- | E4 A4- | A4 ^G4 | A8 | z4 G4 | A4 B4 | G4 c4- | c4 B4 | c8 | z8 | _B8 | %39
 _B8 | A4 F4 | G8 | F8 | G4 _B4- | B4 G4 | A8 | G4 F4 | G4 A4- | A4 F4- | F4 E4 | F8 | z8 | F4 G4 | %53
 A8 | G4 G4- | G4 F4 | G8 | z4 _B4- | B4 _B4 | A4 G4- | G4 F4- | F4 z4 | G4 G4- | G2 A2 _B4 | %64
 c6 _B2 | A2 G2 A4 | _B4 G4- | G4 F4- | F2 D2 E4 | F8 |] %70
V:2
 G8 | A8 | G4 c4- | c4 A4 | G4 _B4- | B4 A4 | G8 | F8- | F8 | _B8 | A8 | d8 | _B8 | G8 | F8 | c8 | %16
 F8 | c8 | d8 | c8- | c8 | F4 E4 | F4 A4 | G8 | F8- | F8 | _B8 | A8 | d4 c4 | A8 | B8 | A8 | c8 | %33
 z4 d4 | e4 c4 | d8 | c8- | c8 | G8- | G8 | F8 | E8 | F4 A4 | _B8 | G8 | F8 | z4 A4 | _B4 c4 | F8 | %49
 G8 | F8- | F8 | z4 E4 | F8 | G4 _B4 | A8 | G8- | G8 | z4 G4 | c8 | _B4 A4 | d8 | c8 | _B4 G4 | %64
 A4 F4- | F4 z4 | G4 E4 | F4 A4 | G8 | F8 |] %70
V:3
 d8 | c8 | d4 e4- | e4 c4 | _B4 d4- | d4 c4- | c4 B4 | c8- | c8 | d8 | D4 F4 | D8 | d8 | z4 _B4 | %14
 c8 | F4 C4 | c8 | F4 E4 | D8 | A8 | z4 F4 | c4 c4- | c8 | c4 B4 | c8- | c8 | d8 | z4 D4- | %28
 D4 A4- | A4 c4 | d8 | e8- | e8 | A4 G4 | c4 A4 | G8 | A4 F4- | F4 c4 | d8- | d8 | D8 | C8 | c8 | %43
 d8 | z4 _B4 | c8- | c8 | d4 e4 | f4 c4- | c4 B4 | c8 | A8 | z4 G4 | D8 | E4 G4 | D8 | d8 | z8 | %58
 d8 | e8 | d4 D4- | D4 G4 | C8 | G8 | F4 A4 | c8 | z4 e4 | d4 c4- | c4 B4 | c8 |] %70

